X:1
T:Title
%%score { 1 | 2 }
L:1/8
M:6/8
K:Ab
V:1 treble nm="Grand Piano"
V:2 bass 
V:1
 z3 z2[Q:1/4=100] E | c>_c=c d2 c | F3- F2 [FA] | G>FE [EA]2 [Ec] | B3- B2 E | c>_c=c d2 c | %6
 B2 c A2 =A | [FB]>[Fc][Fd] [B,EG][B,EG][DEG] |[M:5/8] [CEA]-[CEA]- [CEA]3 |[M:1/8] c | %10
[M:3/4] e2 e d2 G | [DEB]2 [CEA] [CEA]2 [CEG] | [A,DF]2 [A,FA] [Fd]2 [Ac] | B4- BE | %14
 [CE]2 [CA] [CA]2 [Ec] |[M:7/8] [Ec]2 [_Ge] [Fd]3 [Ec] |[M:3/4] c2 B A2 G | %17
[M:5/8] [CA]-[CA]- [CA]3 |] %18
V:2
 z3 z2 E, | [A,E]>[K:treble][A,=D][A,E] [A,F]2[K:bass] [A,E] | [D,A,D]3- [D,A,D]2 [D,D] | %3
 [E,B,E]>[E,A,E][D,G,] [C,A,]2 [A,,A,] | [E,G,E]3- [E,G,E]2 [E,G,] | %5
 [A,E]>[A,=D][A,E] [A,F]2 [A,E] | [E,G,D]2 [E,G,E] [F,A,C]2 [F,CF] | [D,B,]>[D,B,][D,B,] E,E,E, | %8
[M:5/8] A,,-A,,- A,,3 |[M:1/8] [A,E] |[M:3/4] [E,CE]2 [E,CE] [E,B,E]2 [E,DE] | A,,2 A,, A,,2 A,, | %12
 D,2 D, [B,,A,]2 [B,,A,] | [E,G,E]4- [E,G,E][E,G,] | [A,,A,]2 [A,,A,] [A,,A,]2 [A,,A,] | %15
[M:7/8] [A,,A,]2 [A,,A,] [D,A,]3 [A,,A,] |[M:3/4] [E,A,E]2 [E,DE] [E,CE]2 [E,B,D] | %17
[M:5/8] [A,,A,]-[A,,A,]- [A,,A,]3 |] %18

